X: 3206
T: Bees Knees, The
R: slip jig
M: 9/8
K: Dmajor
d/e/|:fed edc dAG|Fdc dBc A2 A/G/|FAd Beg fdc|1 d2 d/c/ BAG ddd/e/:|2 d2 d/c/ BAG AAG||
|:FAD GBD ddc|dAF GGF GFE|AAG FdB AAG|FAD GBD dde|fAF afd BAG|1 FDE DFG AAG:|2 FDE D3 BcA||
|:GGA BBc dAF|GGA Bcd eec|ABA ffe ddf|ged edc cBA|1 GdB ceA dcA:|2 GdB ceA d3:|

